Numix-GalliumOS/16/status/ubuntuone-client-error.svg

<?xml version="1.0" encoding="UTF-8" standalone="no"?>
<svg
   xmlns:dc="http://purl.org/dc/elements/1.1/"
   xmlns:cc="http://creativecommons.org/ns#"
   xmlns:rdf="http://www.w3.org/1999/02/22-rdf-syntax-ns#"
   xmlns:svg="http://www.w3.org/2000/svg"
   xmlns="http://www.w3.org/2000/svg"
   xmlns:sodipodi="http://sodipodi.sourceforge.net/DTD/sodipodi-0.dtd"
   xmlns:inkscape="http://www.inkscape.org/namespaces/inkscape"
   width="16"
   height="16"
   viewBox="0 0 16 16"
   id="svg3025"
   version="1.1"
   inkscape:version="0.91 r"
   sodipodi:docname="ubuntuone-client-error.svg">
  <metadata
     id="metadata3035">
    <rdf:RDF>
      <cc:Work
         rdf:about="">
        <dc:format>image/svg+xml</dc:format>
        <dc:type
           rdf:resource="http://purl.org/dc/dcmitype/StillImage" />
      </cc:Work>
    </rdf:RDF>
  </metadata>
  <defs
     id="defs3033" />
  <sodipodi:namedview
     pagecolor="#ffffff"
     bordercolor="#666666"
     borderopacity="1"
     objecttolerance="10"
     gridtolerance="10"
     guidetolerance="10"
     inkscape:pageopacity="0"
     inkscape:pageshadow="2"
     inkscape:window-width="1280"
     inkscape:window-height="998"
     id="namedview3031"
     showgrid="false"
     inkscape:zoom="14.75"
     inkscape:cx="8"
     inkscape:cy="8"
     inkscape:window-x="0"
     inkscape:window-y="0"
     inkscape:window-maximized="1"
     inkscape:current-layer="svg3025" />
  <path
     style="fill:#ef555c;fill-opacity:1"
     d="M 8 3.910156 C 5.742188 3.910156 3.910156 5.742188 3.910156 8 C 3.910156 8.019531 3.910156 8.035156 3.910156 8.050781 C 3.777344 8.023438 3.640625 8 3.5 8 C 2.371094 8 1.453125 8.914062 1.453125 10.046875 C 1.453125 11.175781 2.371094 12.089844 3.5 12.089844 L 11.683594 12.089844 C 13.261719 12.089844 14.546875 10.808594 14.546875 9.226562 C 14.546875 7.664062 13.289062 6.390625 11.734375 6.363281 C 11.097656 4.925781 9.671875 3.910156 8 3.910156 Z M 6.390625 6.132812 C 6.664062 6.085938 6.941406 6.183594 7.128906 6.390625 L 8 7.257812 L 8.871094 6.390625 C 9.136719 6.109375 9.5625 6.058594 9.890625 6.261719 C 9.917969 6.277344 9.945312 6.292969 9.96875 6.3125 C 10.152344 6.460938 10.261719 6.679688 10.273438 6.914062 C 10.28125 7.148438 10.191406 7.378906 10.019531 7.539062 L 9.152344 8.410156 L 10.019531 9.277344 C 10.265625 9.476562 10.375 9.792969 10.304688 10.097656 C 10.234375 10.40625 9.996094 10.644531 9.691406 10.714844 C 9.382812 10.785156 9.066406 10.671875 8.871094 10.429688 L 8 9.558594 L 7.128906 10.429688 C 6.933594 10.671875 6.617188 10.785156 6.308594 10.714844 C 6.003906 10.644531 5.765625 10.40625 5.695312 10.097656 C 5.625 9.792969 5.734375 9.476562 5.980469 9.277344 L 6.824219 8.410156 L 5.980469 7.539062 C 5.703125 7.273438 5.648438 6.84375 5.851562 6.515625 C 5.96875 6.320312 6.164062 6.179688 6.390625 6.132812 Z "
     id="path3029" />
</svg>

<svg xmlns="http://www.w3.org/2000/svg" viewBox="0 0 16 16">
 <path d="m 8 3.91 c -2.258 0 -4.09 1.832 -4.09 4.09 c 0 0.02 0 0.035 0 0.051 c -0.133 -0.027 -0.27 -0.051 -0.41 -0.051 c -1.129 0 -2.047 0.914 -2.047 2.047 c 0 1.129 0.918 2.043 2.047 2.043 l 8.184 0 c 1.578 0 2.863 -1.281 2.863 -2.863 c 0 -1.562 -1.258 -2.836 -2.813 -2.863 c -0.637 -1.438 -2.063 -2.453 -3.734 -2.453 m -1.609 2.223 c 0.273 -0.047 0.551 0.051 0.738 0.258 l 0.871 0.867 l 0.871 -0.867 c 0.266 -0.281 0.691 -0.332 1.02 -0.129 c 0.027 0.016 0.055 0.031 0.078 0.051 c 0.184 0.148 0.293 0.367 0.305 0.602 c 0.008 0.234 -0.082 0.465 -0.254 0.625 l -0.867 0.871 l 0.867 0.867 c 0.246 0.199 0.355 0.516 0.285 0.82 c -0.07 0.309 -0.309 0.547 -0.613 0.617 c -0.309 0.07 -0.625 -0.043 -0.82 -0.285 l -0.871 -0.871 l -0.871 0.871 c -0.195 0.242 -0.512 0.355 -0.82 0.285 c -0.305 -0.07 -0.543 -0.309 -0.613 -0.617 c -0.07 -0.305 0.039 -0.621 0.285 -0.82 l 0.844 -0.867 l -0.844 -0.871 c -0.277 -0.266 -0.332 -0.695 -0.129 -1.023 c 0.117 -0.195 0.313 -0.336 0.539 -0.383 Z" style="fill:#ef555c;fill-opacity:1"/>
</svg>
